!!!COM: Vivaldi, Antonio Lucio
!!!CDT: 1678/03/04-1741/08/28
!!!OPR: 12 Sonatas for Violin and Basso continuo
!!!OTL: Sonata in C minor, op. @{OPS}, no. @{ONM} (@{SCT})
!!!OPS: 2
!!!ONM: 7
!!!OMV: 3. Corrente
!!!SCT: RV 8
!!!SCA: Antonio Vivaldi: Thematisch-systematisches Verzeichnis seiner Werke (Ryom-Verzeichnis)
!!!OMD: Allegro
!!!key: c
**kern	**fb	**kern
*part2	*	*part1
*staff2	*	*staff1
*ICklav	*	*ICstr
*Icemba	*	*Ivioln
*I"Basso continuo	*	*I"Violino
*I'bc	*	*I'v
*>[A,A,B,B]	*>[A,A,B,B]	*>[A,A,B,B]
*>norep[A,B]	*>norep[A,B]	*>norep[A,B]
*>A	*>A	*>A
*clefF4	*	*clefG2
*k[b-e-]	*	*k[b-e-]
*c:	*	*c:
*M3/4	*	*M3/4
*MM160	*	*MM160
=1	=1	=1
4C/	.	8r
.	.	8gg\
4c\	.	8ee-y\L
.	.	8cc\J
4C/	.	8gg\L
.	.	8cc\J
=2	=2	=2
2.F\	-	(8aa-X\L
.	.	8gg\
.	.	8ff\)
.	.	8ee-y\
.	.	8dd\
.	.	8cc\J
=3	=3	=3
4G\	n	8bn\L
.	.	8dd\
4Bn\	.	8g\
.	.	8dd\
4G\	.	8gg\
.	.	8ff\J
=4	=4	=4
4c\	.	8ee-y\L
.	.	8gg\
4En\	.	8cc\
.	.	8gg\
4C/	.	8ccc\
.	.	8bb-y\J
=5	=5	=5
4F\	-	8aa-X\L
.	.	8ccc\
4r	.	8ff\
.	.	8aan\
4F#X\	6 5	8ddd\
.	.	8ccc\J
=6	=6	=6
4.G\	n	(8bbn\L
.	.	8aa\
.	.	8gg\)
8F\	.	8bb\
[4E-y\	6	8ccc\
.	.	8ee-y\J
!!LO:LB:g=original
=7	=7	=7
8E-y\L]	.	(8g\L
8F\J	.	8dd\
4G\	n	8ccc\)
.	.	8bbn\
4GG/	.	8ff\
.	.	8bb\J
=8	=8	=8
4C/	.	4ccc\
4En\	6	8r
.	.	(8gg\
4C/	.	8ccc\L
.	.	8bb-X\J
=9	=9	=9
2.F\	-	8aa-X\L
.	.	8gg\
.	.	8ff\
.	.	8ee-y\
.	.	8dd\
.	.	8cc\J)
=10	=10	=10
4BB-y/	9	(8dd\L
.	.	8ccc\J)
4D\	6	(4.bb-y\
4BB-y/	7-r	.
.	.	8aa-X\
=11	=11	=11
2E-y\	.	4.gg\)
.	.	8aa-X\
4D\	6	8bb-y\L
.	.	8dd\J
=12	=12	=12
4C/	.	8ee-y\L
.	.	8g\
4F\	-	8a-X\
.	.	8cc\
4A-X\	6	8ff\
.	.	8ee-y\J
=13	=13	=13
4.B-y\	.	(8dd\L
.	.	8cc\
.	.	8b-y\)
8A-X\	.	8dd\
[4G\	6	8ee-y\
.	.	8g\J
!!LO:LB:g=original
=14	=14	=14
8G\L]	.	(8B-y/L
8A-X\J	.	8f/
4B-y\	.	8ee-y/)
.	.	8dd/
4BB-y/	.	8a-X/
.	.	8dd/J
=15	=15	=15
2.E-y\	.	2.ee-y\
=16:|!|:	=16:|!|:	=16:|!|:
*>B	*>B	*>B
4C/	.	8r
.	.	8gg\L
4.c\	.	(8een\
.	.	8cc\)
.	.	(8ee\
8d-X\	.	8b-y\J)
=17	=17	=17
4.En\	5	4.bb-y\
8E\	.	8gg\
8F\L	-	8aa-X\L
8G\J	.	8ff\J
=18	=18	=18
8A-X\L	6	8cc\L
8F\	.	8ff\J
8c\	n	4.een\t
8B-y\	.	.
8c\	.	.
8C\J	.	8ff\
=19	=19	=19
4F\	-	8ff\L
.	.	(16aa-X\L
.	.	16gg\JJ)
4.dn\	#	8ff#X\L
.	.	8dd\
.	.	8ff#y\
8e-y\	6	8cc\J
=20	=20	=20
4.F#X\	5	4.ccc\
8F#y\	.	8aan\
8G\L	.	8bb-y\L
8A\J	.	8gg\J
=21	=21	=21
8B-y\L	6	8dd\L
8G\	.	8gg\J
8d\	5 4	4.ff#X\t
8c\	.	.
8d\	#	.
8D\J	.	8gg\
!!LO:LB:g=original
=22	=22	=22
4GG/	.	(8gg\L
.	.	8aa-X\
4G\	.	8bb-y\
.	.	8gg\
4F\	-	8aa-y\
.	.	8bb-y\J)
=23	=23	=23
4En\	6	4.cc\
4c\	n	.
.	.	(8bb-y\
4C/	.	8aa-X\L
.	.	8gg\J)
=24	=24	=24
4FF/	-	8.aa-X\L
.	.	(16gg\k
4r	.	8.ff\
.	.	16ee-y\k
4r	.	8.dd\
.	.	16cc\Jk)
=25	=25	=25
4d\	6	4.b-y\
4B-y\	.	.
.	.	(8aa-X\
4BB-y/	.	8gg\L
.	.	8ff\J)
=26	=26	=26
4EE-y/	.	8.gg\L
.	.	(16ff\k
4r	.	8.ee-y\
.	.	16dd\k
4r	.	8.cc\
.	.	16b-y\Jk)
=27	=27	=27
4c\	6-r	4.a-X/
4A-X\	.	.
.	.	(8gg\
4AA-X/	6	8ff\L
.	.	8ee-y\J)
=28	=28	=28
4DD/	6	8.ff\L
.	.	(16ee-y\k
4r	.	8.dd\
.	.	16cc\k
4r	.	8.bn\
.	.	16a\Jk)
!!LO:LB:g=original
=29	=29	=29
4Bn\	6	(8g\L
.	.	8bn\
4BBn/	.	8dd\
.	.	8ff\
4GG/	n	8ee-y\
.	.	8dd\J)
=30	=30	=30
4C/	.	8ee-y\L
.	.	8gg\
4c\	.	(8ee-y\
.	.	8cc\)
4C/	.	(8gg\
.	.	8cc\J)
=31	=31	=31
2.C/	6-r	(8aa-X\L
.	.	8gg\
.	4#| 2	8ff#X\
.	.	8dd\
.	.	8cc\
.	.	8ff#y\J)
=32	=32	=32
2.BB-y/	6	(8gg\L
.	.	8ff\
.	4nr 2	8een\
.	.	8cc\
.	.	8b-y\
.	.	8ee\J)
=33	=33	=33
2.AA-X/	6	(8ff\L
.	.	8ee-X\
.	.	8dd-X\
.	.	8bn\
.	.	8cc\
.	.	8ddn\J)
=34	=34	=34
4GG/	n	(8g/L
.	.	8bn/
4EE-y/	6	8cc/
.	.	8e-y/
4FF/	6 5	8d/
.	.	8c/J)
=35	=35	=35
4GG/	n	(8G/L
.	.	8d/
4G\	6 4	8cc/
.	.	8bn/
4GG/	5 n	8g/
.	.	8b/J)
!!LO:LB:g=original
=36	=36	=36
4C/	.	8cc\L
.	.	8gg\
4c\	.	(8ee-y\
.	.	8cc\)
4C/	.	(8gg\
.	.	8cc\J)
=37	=37	=37
2.C/	6-r	(8aa-X\L
.	.	8gg\J
.	4#| 2	8ff#X\L
.	.	16ee-y\L
.	.	16dd\JJ
.	.	8cc\L
.	.	8ff#y\J)
=38	=38	=38
2.BB-y/	6	(8gg\L
.	.	8ff\J
.	4nr 2	8een\L
.	.	16dd-X\L
.	.	16cc\JJ
.	.	8b-y\L
.	.	8ee\J)
=39	=39	=39
2.AA-X/	6	(8ff\L
.	.	8ee-y\J
.	.	8dd-X\L
.	.	16cc\L
.	.	16bn\JJ
.	.	8cc\L
.	.	8ddn\J)
=40	=40	=40
4GG/	n	(8g/L
.	.	8bn/
4EE-y/	6	8cc/
.	.	8e-y/
4FF/	6 5	8d/
.	.	8c/J)
=41	=41	=41
4GG/	n	(8G/L
.	.	8d/
4G\	6 4	8cc/
.	.	8bn/
4GG/	5 n	8g/
.	.	8b/J)
=42	=42	=42
2.C/;	.	2.cc\;
=:|!	=:|!	=:|!
*-	*-	*-
!!!SMS: RV 8 / Estienne Roger, Amsterdam [facs.]
!!!ENC: Fran Bennion; rev. 04/21 E. Correia
!!!END: 2004/11/29
!!!ONB: Converted from MuseData with musedata2hum on Sat May 11 12:07:52 2024
!!!YEM: (C) 2004, 2004 Center for Computer Assisted Research in the Humanities.
!!!system-decoration: [(s1,s2)]
!!!URL-info: https://wiki.ccarh.org/wiki/MuseData:_Antonio_Vivaldi#Op._2:_Sonate_a_violino_e_basso_per_il_cembalo
!!!URL-pdf: https://pdf.musedata.org/vivaldi-op02-no07.pdf#page=4 MuseData edition
!!!URL-pdf: http://conquest.imslp.info/files/imglnks/usimg/b/b7/IMSLP99075-PMLP183164-Vivaldi_-_Sonatas_Op2.pdf#page=27 Estienne Roger Amsterdam: Estienne Roger, No.2, n.d.[1711].
!!!URL-youtube: https://www.youtube.com/watch?v=SiijZmW9jKM&t=4601s L'Arte dell'Arco
!!!title: @{OTL}, mov. @{OMV}
!!!filter-chint: chint -mid
!!!EEV: 2024/05/11
!!!source-file: https://bitbucket.org/musedata/vivaldi/src/master/roger/op2/no07/stage2/03/01
!!!source-file: https://bitbucket.org/musedata/vivaldi/src/master/roger/op2/no07/stage2/03/02
